X:410
T: Segmented Jig
S: "Sully's Irish Music Book"
Z: B.Black
L: 1/8
M: 6/8
R: jig
K: Ador
A3 AGE|c3 d3|e3 edB|g3 e2g|
age g2e|dBG GAB|cBA BAG|A3 A3 :|
a3 age|g3 ged|e2a aga|ged e2g|
age g2e|dBG GAB|cBA BAG|A3 A3 :|
